!!!COM: Palestrina, Giovanni Perluigi da
!!!OPR: Missa Eripe me de inimicis
!!!OMD: Kyrie
!!!OTL: First Section
**kern	**kern	**kern	**kern	**kern
*Ibass	*Itenor	*Itenor	*Icalto	*Icant
!Bassus	!Tenor 2	!Tenor 1	!Altus	!Cantus
*clefF4	*clefGv2	*clefGv2	*clefG2	*clefG2
*k[]	*k[]	*k[]	*k[]	*k[]
*D:dor	*D:dor	*D:dor	*D:dor	*D:dor
*M4/2	*M4/2	*M4/2	*M4/2	*M4/2
=1	=1	=1	=1	=1
0r	0r	0r	0r	1a
.	.	.	.	1a
=2	=2	=2	=2	=2
0r	0r	0r	1d	1dd
.	.	.	1d	2r
.	.	.	.	2dd
=3	=3	=3	=3	=3
0r	0r	1d	1a	2ff
.	.	.	.	2dd
.	.	1d	2r	2ff
.	.	.	2a	2ff
=4	=4	=4	=4	=4
0r	0r	1a	2cc	4ee
.	.	.	.	4dd
.	.	.	2a	4cc
.	.	.	.	4b
.	.	2r	2cc	2a
.	.	2d	2b	2dd
=5	=5	=5	=5	=5
0r	0r	2f	2a	2cc
.	.	2d	2.b	2.dd
.	.	1f	.	.
.	.	.	4a	4cc
.	.	.	[2a	4cc
.	.	.	.	8b
.	.	.	.	8a
=6	=6	=6	=6	=6
0r	1r	1e	2a]	1b
.	.	.	2g	.
.	1A	2f	2.cc	2.a
.	.	4e	.	.
.	.	4d	4b	4b
=7	=7	=7	=7	=7
1r	1A	2e	[0a	4cc
.	.	.	.	4dd
.	.	2c	.	1ee
1D	1d	[1f	.	.
.	.	.	.	4dd
.	.	.	.	4cc
=8	=8	=8	=8	=8
1D	2r	1f]	1a]	1dd
.	2A	.	.	.
1A	2c	1e	2r	[1ee
.	2A	.	2a	.
=9	=9	=9	=9	=9
2r	2.c	1r	2g	0ee]
2A	.	.	2.cc	.
.	4d	.	.	.
2c	2e	1A	.	.
.	.	.	4a	.
2A	4c	.	[2cc	.
.	4d	.	.	.
=10	=10	=10	=10	=10
1c	4e	1A	4cc]	2r
.	4f	.	4b	.
.	2.e	.	1a	2ee
1B-	.	1d	.	2ff
.	4d	.	.	.
.	[2d	.	2g	2dd
=11	=11	=11	=11	=11
1A	2d]	2r	0a	2ff
.	2c#	2e	.	2ee
[1D	[1d	2f	.	2.dd
.	.	2d	.	.
.	.	.	.	8cc
.	.	.	.	8b-
=12	=12	=12	=12	=12
1D]	1d]	1f	2r	2a
.	.	.	2a	1dd
1r	1G	[1g	2b-	.
.	.	.	2g	[2ee
=13	=13	=13	=13	=13
1r	0r	2g]	2b-	4ee]
.	.	.	.	4dd
.	.	2f	2a	1dd
2r	.	1e	2g	.
2A	.	.	2a	2cc#
=14	=14	=14	=14	=14
2B-	2r	1d	4f	0dd
.	.	.	4d	.
2G	1d	.	2g	.
[1B-	.	2r	1f	.
.	2f	2d	.	.
=15	=15	=15	=15	=15
1B-]	2d	2f	0r	1r
.	2.f	2d	.	.
[1A	.	1f	.	1a
.	4e	.	.	.
.	[2d	.	.	.
=16	=16	=16	=16	=16
1A]	2d]	2.e	1r	1a
.	2c	.	.	.
.	.	4f	.	.
1r	[1B-	2g	1d	1dd
.	.	[2f	.	.
=17	=17	=17	=17	=17
0r	1B-]	4f]	1d	2r
.	.	4e	.	.
.	.	1d	.	2dd
.	1A	.	1a	2ff
.	.	2c#	.	2ee
=18	=18	=18	=18	=18
1r	0r	4d	2r	1ff
.	.	4e	.	.
.	.	4f	2a	.
.	.	4g	.	.
2r	.	2.a	1cc	1ee
2A	.	.	.	.
.	.	8g	.	.
.	.	8f	.	.
=19	=19	=19	=19	=19
2c	1A	2e	2a	0cc
2A	.	1f	2.cc	.
1c	1A	.	.	.
.	.	.	4b	.
.	.	[2e	[2a	.
=20	=20	=20	=20	=20
1B-	1d	2e]	2a]	2r
.	.	1d	2g	2dd
1A	2r	.	[1a	2ff
.	2e	2c#	.	2ee
=21	=21	=21	=21	=21
0r	2f	2d	1a]	2.dd
.	2d	2.f	.	.
.	.	.	.	8cc
.	.	.	.	8b
.	1f	.	2r	4a
.	.	4g	.	4b
.	.	[2a	2a	4cc
.	.	.	.	4dd
=22	=22	=22	=22	=22
1E	1e	2a]	2cc	2.ee
.	.	2g#	2b	.
.	.	.	.	4dd
2F	2A	2.a	2a	2cc
2D	2d	.	[2f	2dd
.	.	4g	.	.
=23	=23	=23	=23	=23
1F	2c	2f	4f]	1a
.	.	.	4g	.
.	4B	2d	1a	.
.	4A	.	.	.
1E	1B	1e	.	1ee
.	.	.	2g#	.
=24	=24	=24	=24	=24
[0A	[0A	[0e	[0a	[0cc#
=25	=25	=25	=25	=25
0A]	0A]	0e]	0a]	0cc#]
*-	*-	*-	*-	*-
!!!CDT: 1525/^1526/-1594/2/2
!!!OCY: Italia
!!!AGN: Mass (Parody)
!!!AST: renaissance, vocal
!!!ASW: Motet 1559 (Maillard)
!!!PWK: Masses, Book 4
!!!RNB: Cadence finals: A
!!!YOR: Le Opere Complete, v. 10, p. 79
!!!YOO: Rome, Italy: Fratelli Scalera
!!!END: 1992//
!!!EED: John Miller
!!!YEC: Copyright 2000, John Miller
!!!YEN: United States of America
!!!YEM: Rights to all derivative electronic formats reserved.
!!!YEM: Refer to licensing agreement for further details.
!!!YEM: This file must be accompanied by the licensing agreement.
!!!YEM: A copy of the licensing agreement may be found at http://www.music-cog.ohio-state.edu/HumdrumDatabases/Palestrina/license.txt
!!!EMD: converted to Humdrum by Bret Aarden
